; Contemporary Dance G-code
; Generated by Python Script
; Date: 2025-01-18 14:24:06

G21 ; Set units to millimeters
G90 ; Use absolute positioning
M82 ; Set extruder to absolute mode
G28 ; Home all axes

G1 X10 Y10 Z0.2 F1200 ; Move to starting position
G1 X20 Y20 Z0.5 F1500 ; Move diagonally to arms front position 1
G1 X30 Y20 Z0.8 F1500 ; Move diagonally to arms front position 2
G1 X20 Y30 Z1.0 F1500 ; Move diagonally to arms shoulder position 1
G1 X30 Y30 Z1.2 F1500 ; Move diagonally to arms shoulder position 2
G1 X25 Y40 Z0.5 F1500 ; Move diagonally to arms head position
G1 X10 Y40 Z0.2 F1500 ; Wiggle hips left
G1 X30 Y40 Z1.0 F1500 ; Wiggle hips right
G1 X20 Y10 Z0.5 F1500 ; Move diagonally down
; Contemporary dance section begins
G1 X17.97 Y62.61 Z0.62 F1496 ; Random move 1
G4 P500 ; Pause for 500ms to simulate dramatic pose
G1 X61.09 Y116.52 Z1.73 F1754 ; Random move 2
G1 X81.82 Y105.29 Z1.12 F1556 ; Random move 3
G1 X10.64 Y85.73 Z0.52 F1369 ; Random move 4
G1 X49.56 Y39.74 Z1.62 F1674 ; Random move 5
G1 X81.58 Y118.50 Z1.98 F1180 ; Random move 6
G4 P500 ; Pause for 500ms to simulate dramatic pose
G1 X119.34 Y41.34 Z1.25 F1475 ; Random move 7
G1 X50.66 Y58.37 Z1.73 F1209 ; Random move 8
G1 X2.42 Y102.96 Z0.45 F1970 ; Random move 9
G1 X121.42 Y144.53 Z1.65 F1733 ; Random move 10
G1 X101.98 Y39.94 Z1.98 F1791 ; Random move 11
G4 P500 ; Pause for 500ms to simulate dramatic pose
G1 X22.41 Y26.30 Z1.99 F1759 ; Random move 12
G1 X29.60 Y116.74 Z1.51 F1847 ; Random move 13
G1 X3.24 Y25.73 Z0.24 F1592 ; Random move 14
G1 X2.24 Y66.68 Z1.54 F1877 ; Random move 15
G1 X25.88 Y113.94 Z1.63 F862 ; Random move 16
G4 P500 ; Pause for 500ms to simulate dramatic pose
G1 X79.99 Y46.50 Z0.69 F1177 ; Random move 17
G1 X53.33 Y48.99 Z1.15 F1108 ; Random move 18
G1 X88.22 Y27.71 Z0.87 F814 ; Random move 19
G1 X74.15 Y33.49 Z0.40 F928 ; Random move 20
G1 X21.30 Y35.01 Z0.48 F1970 ; Random move 21
G4 P500 ; Pause for 500ms to simulate dramatic pose
G1 X9.35 Y97.52 Z0.27 F1907 ; Random move 22
G1 X23.21 Y128.76 Z0.40 F893 ; Random move 23
G1 X4.09 Y126.64 Z0.58 F1526 ; Random move 24
G1 X82.66 Y2.62 Z0.37 F1857 ; Random move 25
G1 X139.19 Y4.19 Z0.57 F1686 ; Random move 26
G4 P500 ; Pause for 500ms to simulate dramatic pose
G1 X31.42 Y21.72 Z0.46 F831 ; Random move 27
G1 X47.67 Y94.00 Z0.33 F1905 ; Random move 28
G1 X61.51 Y98.48 Z1.92 F1363 ; Random move 29
G1 X20.77 Y116.24 Z0.86 F1409 ; Random move 30
; Contemporary dance section ends
G28 ; Return to home position

; End of Contemporary Dance G-code
