; Macarena Dance G-code
; Generated by Python Script
; Date: 2025-01-18 14:20:22

G21 ; Set units to millimeters
G90 ; Use absolute positioning
M82 ; Set extruder to absolute mode
G28 ; Home all axes

G1 X10 Y10 Z0.2 F1200 ; Move to starting position
G1 X20 Y20 ; Move diagonally to arms front position 1
G1 X30 Y20 ; Move diagonally to arms front position 2
G1 X20 Y30 ; Move diagonally to arms shoulder position 1
G1 X30 Y30 ; Move diagonally to arms shoulder position 2
G1 X25 Y40 ; Move diagonally to arms head position
G1 X10 Y40 ; Wiggle hips left
G1 X30 Y40 ; Wiggle hips right
G1 X20 Y10 ; Move diagonally down
G1 X20 Y20 ; Arms to front position 1
G1 X30 Y20 ; Arms to front position 2
G1 X20 Y30 ; Arms to shoulders position 1
G1 X30 Y30 ; Arms to shoulders position 2
G1 X25 Y40 ; Arms to head position
G1 X10 Y40 ; Wiggle hips left
G1 X30 Y40 ; Wiggle hips right
G1 X20 Y10 ; Move diagonally down
G1 X20 Y20 ; Arms to front position 1
G1 X30 Y20 ; Arms to front position 2
G1 X20 Y30 ; Arms to shoulders position 1
G1 X30 Y30 ; Arms to shoulders position 2
G1 X25 Y40 ; Arms to head position
G1 X10 Y40 ; Wiggle hips left
G1 X30 Y40 ; Wiggle hips right
G1 X20 Y10 ; Move diagonally down
G28 ; Return to home position

; End of Macarena Dance G-code
